src/assets/outline/MusicFilter.svg

<svg width="24" height="24" viewBox="0 0 24 24"  xmlns="http://www.w3.org/2000/svg">
<path d="M22 3.75H2C1.59 3.75 1.25 3.41 1.25 3C1.25 2.59 1.59 2.25 2 2.25H22C22.41 2.25 22.75 2.59 22.75 3C22.75 3.41 22.41 3.75 22 3.75Z" />
<path d="M11 9.75H2C1.59 9.75 1.25 9.41 1.25 9C1.25 8.59 1.59 8.25 2 8.25H11C11.41 8.25 11.75 8.59 11.75 9C11.75 9.41 11.41 9.75 11 9.75Z" />
<path d="M8 15.75H2C1.59 15.75 1.25 15.41 1.25 15C1.25 14.59 1.59 14.25 2 14.25H8C8.41 14.25 8.75 14.59 8.75 15C8.75 15.41 8.41 15.75 8 15.75Z" />
<path d="M6 21.75H2C1.59 21.75 1.25 21.41 1.25 21C1.25 20.59 1.59 20.25 2 20.25H6C6.41 20.25 6.75 20.59 6.75 21C6.75 21.41 6.41 21.75 6 21.75Z" />
<path d="M11.8402 22.7501C10.2302 22.7501 8.91016 21.4401 8.91016 19.8201C8.91016 18.2101 10.2202 16.8901 11.8402 16.8901C13.4602 16.8901 14.7702 18.2001 14.7702 19.8201C14.7702 21.4401 13.4602 22.7501 11.8402 22.7501ZM11.8402 18.4001C11.0502 18.4001 10.4102 19.0401 10.4102 19.8301C10.4102 20.6201 11.0502 21.2601 11.8402 21.2601C12.6302 21.2601 13.2702 20.6201 13.2702 19.8301C13.2702 19.0401 12.6302 18.4001 11.8402 18.4001Z" />
<path d="M14.02 20.5701C13.61 20.5701 13.27 20.2301 13.27 19.8201V11.0501C13.27 9.84007 13.99 8.8901 15.16 8.5801L19.51 7.39009C20.46 7.13009 21.28 7.23007 21.86 7.68007C22.44 8.13007 22.74 8.86007 22.74 9.87007V18.3801C22.74 18.7901 22.4 19.1301 21.99 19.1301C21.58 19.1301 21.24 18.7901 21.24 18.3801V9.87007C21.24 9.37007 21.14 9.02008 20.95 8.88008C20.76 8.73008 20.37 8.72005 19.9 8.85005L15.55 10.0401C15.26 10.1201 14.77 10.3601 14.77 11.0701V19.8401C14.77 20.2401 14.43 20.5701 14.02 20.5701Z" />
<path d="M19.8201 21.2999C18.2101 21.2999 16.8901 19.9899 16.8901 18.3699C16.8901 16.7599 18.2001 15.4399 19.8201 15.4399C21.4401 15.4399 22.7501 16.7499 22.7501 18.3699C22.7501 19.9899 21.4401 21.2999 19.8201 21.2999ZM19.8201 16.95C19.0301 16.95 18.3901 17.5899 18.3901 18.3799C18.3901 19.1699 19.0301 19.8099 19.8201 19.8099C20.6101 19.8099 21.2501 19.1699 21.2501 18.3799C21.2501 17.5899 20.6101 16.95 19.8201 16.95Z" />
<path d="M14.0202 14.35C13.6902 14.35 13.3902 14.13 13.3002 13.8C13.1902 13.4 13.4302 12.9901 13.8302 12.8801L21.8102 10.7001C22.2102 10.5901 22.6202 10.83 22.7302 11.23C22.8402 11.63 22.6002 12.0401 22.2002 12.1501L14.2202 14.3301C14.1502 14.3401 14.0802 14.35 14.0202 14.35Z" />
</svg>

<?xml version="1.0" encoding="UTF-8"?>
<svg width="24" height="24" viewBox="0 0 24 24" xmlns="http://www.w3.org/2000/svg">
 <path d="m22 3.75h-20c-0.41 0-0.75-0.34-0.75-0.75s0.34-0.75 0.75-0.75h20c0.41 0 0.75 0.34 0.75 0.75s-0.34 0.75-0.75 0.75z"/>
 <path d="m11 9.75h-9c-0.41 0-0.75-0.34-0.75-0.75s0.34-0.75 0.75-0.75h9c0.41 0 0.75 0.34 0.75 0.75s-0.34 0.75-0.75 0.75z"/>
 <path d="m8 15.75h-6c-0.41 0-0.75-0.34-0.75-0.75s0.34-0.75 0.75-0.75h6c0.41 0 0.75 0.34 0.75 0.75s-0.34 0.75-0.75 0.75z"/>
 <path d="m6 21.75h-4c-0.41 0-0.75-0.34-0.75-0.75s0.34-0.75 0.75-0.75h4c0.41 0 0.75 0.34 0.75 0.75s-0.34 0.75-0.75 0.75z"/>
 <path d="m11.84 22.75c-1.61 0-2.93-1.31-2.93-2.93 0-1.61 1.31-2.93 2.93-2.93s2.93 1.31 2.93 2.93-1.31 2.93-2.93 2.93zm0-4.35c-0.79 0-1.43 0.64-1.43 1.43s0.64 1.43 1.43 1.43 1.43-0.64 1.43-1.43-0.64-1.43-1.43-1.43z"/>
 <path d="m14.02 20.57c-0.41 0-0.75-0.34-0.75-0.75v-8.77c0-1.21 0.72-2.16 1.89-2.47l4.35-1.19c0.95-0.26 1.77-0.16002 2.35 0.28998s0.88 1.18 0.88 2.19v8.51c0 0.41-0.34 0.75-0.75 0.75s-0.75-0.34-0.75-0.75v-8.51c0-0.5-0.1-0.84999-0.29-0.98999-0.19-0.15-0.58-0.16003-1.05-0.03003l-4.35 1.19c-0.29 0.08-0.78 0.32-0.78 1.03v8.77c0 0.4-0.34 0.73-0.75 0.73z"/>
 <path d="m19.82 21.3c-1.61 0-2.93-1.31-2.93-2.93 0-1.61 1.31-2.93 2.93-2.93s2.93 1.31 2.93 2.93-1.31 2.93-2.93 2.93zm0-4.3499c-0.79 0-1.43 0.6399-1.43 1.4299s0.64 1.43 1.43 1.43 1.43-0.64 1.43-1.43-0.64-1.4299-1.43-1.4299z"/>
 <path d="m14.02 14.35c-0.33 0-0.63-0.22-0.72-0.55-0.11-0.4 0.13-0.8099 0.53-0.9199l7.98-2.18c0.4-0.11 0.81 0.1299 0.92 0.5299s-0.13 0.8101-0.53 0.9201l-7.98 2.18c-0.07 0.01-0.14 0.0199-0.2 0.0199z"/>
</svg>
